X:1
T:Sicilienne
C:Gabriel Fauré
M:6/8
L:1/8
Q:3/8=72
K:Gm
% A section — 12 bars + pickup; range D4–C5; sicilienne rhythm 3+1+2 throughout
| D | G3 Bc2 | B3 AG2 | A3 GF2 | D6 | E3 FG2 | A3 Bc2 | B3 GF2 | G6 | c3 BA2 | A3 ^FD2 | G3 FD2 | G6 |]
